!!!!SEGMENT: pl-kk--kk-i-8--019_anonim--deus-tuorum-militum.krn
!!!cenid: 16xx:1160
!!!COM: Anonim
!!!COM-rismid: pe30004985
!!!CDT:
!!!CNT:
!!!OTL: Deus tuorum militum
!!!PDT:
!!!AGN: Sacred
!!!SMS-siglum: PL-Kk
!!!SMS-shelfmark: Kk.I.8
!!!SMS-shelfwork: 019 W
!!!SMS-variant:
!!!SMS-altvar:
!!!NIFC-rismid: 1001148872
!!!URL-scan: http://repozytorium.nifc.pl/skany/pl-kk-nut--i-8
!!!ONB-nifc: UWAGA: A (skan 0011), T1 (0035), T2 (0058), B (0081). Następny utwór: Rex gloriose Martyrum Corona
!!!key:
**kern	**text	**text	**text	**text	**text	**kern	**text	**text	**text	**text	**text	**kern	**text	**text	**text	**text	**text	**kern	**text	**text	**text	**text	**text
*part4	*part4	*part4	*part4	*part4	*part4	*part3	*part3	*part3	*part3	*part3	*part3	*part2	*part2	*part2	*part2	*part2	*part2	*part1	*part1	*part1	*part1	*part1	*part1
*staff4	*staff4	*staff4	*staff4	*staff4	*staff4	*staff3	*staff3	*staff3	*staff3	*staff3	*staff3	*staff2	*staff2	*staff2	*staff2	*staff2	*staff2	*staff1	*staff1	*staff1	*staff1	*staff1	*staff1
*Ibass	*	*	*	*	*	*Itenor	*	*	*	*	*	*Itenor	*	*	*	*	*	*Ialto	*	*	*	*	*
*I"[BASSVS.]	*	*	*	*	*	*I"[TENOR 2dus.]	*	*	*	*	*	*I"[Tenore 1mo]	*	*	*	*	*	*I"[alto.]	*	*	*	*	*
*I'B	*	*	*	*	*	*I'T 2	*	*	*	*	*	*I'T 1	*	*	*	*	*	*I'A	*	*	*	*	*
*clefF4	*	*	*	*	*	*clefC4	*	*	*	*	*	*clefC4	*	*	*	*	*	*clefC3	*	*	*	*	*
*k[]	*	*	*	*	*	*k[]	*	*	*	*	*	*k[]	*	*	*	*	*	*k[]	*	*	*	*	*
*a:	*	*	*	*	*	*a:	*	*	*	*	*	*a:	*	*	*	*	*	*a:	*	*	*	*	*
*M3/1	*	*	*	*	*	*M3/1	*	*	*	*	*	*M3/1	*	*	*	*	*	*M3/1	*	*	*	*	*
=1	=1	=1	=1	=1	=1	=1	=1	=1	=1	=1	=1	=1	=1	=1	=1	=1	=1	=1	=1	=1	=1	=1	=1
*all\right	*	*	*	*	*	*all\right	*	*	*	*	*	*all\right	*	*	*	*	*	*	*	*	*	*	*
!	!	!	!	!	!	!	!	!	!	!	!	!	!	!	!	!	!	!LO:TX:t=P:problem:tylko pierwsza zwrotka podpisana z uwagą na koordynację z zapisem muzycznym (inną ręką?), w pozostałych dopasowuję do pionów	!	!	!	!	!
1A\	De-	Hic	Pae-	Ob	Laus	1.A\	De-	Hic	Pae-	Ob	Laus	1c\	De-	Hic	Pae-	Ob	Laus	1e\	De-	Hic	Pae-	Ob	Laus
1.D\	-us	nem-	-nas	hoc	et	.	.	.	.	.	.	(2d\	-us	nem-	-nas	hoc	et	2f\	-us	nem-	-nas	hoc	et
.	.	.	.	.	.	2A\	-us	nem-	-nas	hoc	et	2c\)	.	.	.	.	.	2e\	.	.	.	.	.
.	.	.	.	.	.	1F/	tu-	-pe	cu-	pre-	pe-	(2Bn\	tu-	-pe	Cu-	pre-	pe-	2d\	tu-	-pe	cu-	pre-	pe-
2D\	tu-	-pe	Cu-	pre-	pe-	.	.	.	.	.	.	2A\)	.	.	.	.	.	2c/	o	.	.	.	.
=2	=2	=2	=2	=2	=2	=2	=2	=2	=2	=2	=2	=2	=2	=2	=2	=2	=2	=2	=2	=2	=2	=2	=2
2E\	-o-	mun-	-cur-	-ca-	-ren-	2G/	-o-	mun-	-cur-	-ca-	-ren-	1.G/	-o-	mun-	-cur-	-ca-	-ren-	1.B/	.	Mun-	-cur-	-ca-	-ren-
2F\	.	.	.	.	.	2A/	.	.	.	.	.	.	.	.	.	.	.	.	.	.	.	.	.
2E\	.	.	.	.	.	2G/	.	.	.	.	.	.	.	.	.	.	.	.	.	.	.	.	.
2D\	.	.	.	.	.	2F/	.	.	.	.	.	4A\	.	.	.	.	.	4c/	.	.	.	.	.
.	.	.	.	.	.	.	.	.	.	.	.	4B\	.	.	.	.	.	4d\	.	.	.	.	.
1C/	.	.	.	.	.	1E/	.	.	.	.	.	1c\	.	.	.	.	.	1e\	ru(m)	.	.	.	.
=3	=3	=3	=3	=3	=3	=3	=3	=3	=3	=3	=3	=3	=3	=3	=3	=3	=3	=3	=3	=3	=3	=3	=3
!	!	!	!	!	!	!LO:TX:a:t=De Martyribus	!	!	!	!	!	!LO:TX:a:t=De Martyribus	!	!	!	!	!	!LO:TX:a:t=De Martyrib(us).	!	!	!	!	!
1D\	rum	-di	-rit	-tu	-nis	1A\	-rum	-di	-rit	-tu	-nis	1c\	-rum	-di	-rit	-tu	-nis	1f\,<	.	-di	-rit	-tu	-nis
!LO:TX:a:t=De Martyribus	!	!	!	!	!	!	!	!	!	!	!	!	!	!	!	!	!	!	!	!	!	!	!
1.E\	mi-	gau-	for-	ſup-	glo-	1.A\	Mi-	gau-	for-	ſup-	glo-	1.B\	mi-	gau-	for-	ſup-	glo-	1.e\	mi-	gau-	for-	su-	glo-
2E\	-li-	-di-	-ti-	-pli-	-ri-	2G#X/	-li-	-di-	-ti-	-pli-	-ri-	2B\	-li-	-di-	-ti-	-pli-	-ri-	2e\	-li-	-di-	-ti-	-pli-	-ri-
=4	=4	=4	=4	=4	=4	=4	=4	=4	=4	=4	=4	=4	=4	=4	=4	=4	=4	=4	=4	=4	=4	=4	=4
0.AA/	-tum	-a	-ter	-ci	-a	0.A\	-tum	-a	-ter	-ci	-a	0.A\	-tum	-a	-ter	-ci	-a	0.e\	-tu(m)	-a	-ter	-ci	-a
=5	=5	=5	=5	=5	=5	=5	=5	=5	=5	=5	=5	=5	=5	=5	=5	=5	=5	=5	=5	=5	=5	=5	=5
1A\	ſors	et	et	te	Pat-	1A\	ſors	et	et	te	Pat-	1c\	ſors	et	et	te	Pat-	1e\	Sors	et	et	te	Pat-
1A\	et	blan-	ſuſ-	poſ-	-ri	1A\	et	blan-	ſuſ-	poſ-	-ri	1c\	et	blan-	ſuſ-	poſ-	-ri	1e\	et	blan-	suſ-	pos-	-ri
1F#X\	Co-	-da	-tu-	-ci-	ſit	1A\	Co-	-da	-tu-	-ci-	ſit	1d\	Co-	-da	-tu-	-ci-	ſit	1a\	Co-	-da	-tu-	-ci-	sit
=6	=6	=6	=6	=6	=6	=6	=6	=6	=6	=6	=6	=6	=6	=6	=6	=6	=6	=6	=6	=6	=6	=6	=6
1.G\	-ro-	frau-	-lit	-mus	at-	1.B\	-ro-	frau-	-lit	-mus	at-	1.B\	-ro-	frau-	-lit	-mus	at-	1.d\	-ro-	frau-	-lit	-mus	at-
2F\	.	.	.	.	.	2A\	.	.	.	.	.	4c\	.	.	.	.	.	4e\	.	.	.	.	.
.	.	.	.	.	.	.	.	.	.	.	.	4d\	.	.	.	.	.	4f\	.	.	.	.	.
1E\	.	.	.	.	.	1G/	.	.	.	.	.	1e\	.	.	.	.	.	1g\	.	.	.	.	.
=7	=7	=7	=7	=7	=7	=7	=7	=7	=7	=7	=7	=7	=7	=7	=7	=7	=7	=7	=7	=7	=7	=7	=7
!	!	!	!	!	!	!LO:TX:t=P:problem:♮ above	!	!	!	!	!	!	!	!	!	!	!	!LO:TX:t=P:problem:skreślona kreska taktowa	!	!	!	!	!
1E\	-na	-dum	Vi-	pi-	-q(ue)	1Bn\	-na	-dum	Vi-	pi-	-q(ue)	1e\	-na	-dum	Vi-	pi-	-q(ue)	1g\	-na	-du(m)	vi-	pi-	-q(ue)
!LO:SIC:l:v:s=is:verse4	!	!	!	!	!	!LO:SIC:l:v:s=is:verse4	!	!	!	!	!	!LO:SIC:l:v:s=is:verse4	!	!	!	!	!	!LO:TX:t=P:problem:# above	!	!	!	!	!
1.BB/	prae-	pa-	-ri-	-jſ-	Fi-	1.B\	prae-	pa-	-ri-	-jſ-	Fi-	1.e\	prae-	pa-	-ri-	-jſ-	Fi-	1.f#X\	prae-	pa-	-ri-	-iſ-	Fi-
2BB/	-mi-	-bu-	-li-	-si-	-li-	2B\	-mi-	-bu-	-li-	-si-	-li-	2d#X\	-mi-	-bu-	-li-	-si-	-li-	2f#\	-mi-	-bu-	-li-	-si-	-li-
=8	=8	=8	=8	=8	=8	=8	=8	=8	=8	=8	=8	=8	=8	=8	=8	=8	=8	=8	=8	=8	=8	=8	=8
0.E\	-um	-la	-ter	-me	-o	0.B\	-um	-la	-ter	-me	-o	0.e\	-um	-la	-ter	-me	-o	0.e\	-u(m)	-la	-ter	-me	-o
=9	=9	=9	=9	=9	=9	=9	=9	=9	=9	=9	=9	=9	=9	=9	=9	=9	=9	=9	=9	=9	=9	=9	=9
1A\	Lau-	Im-	Fun-	In	ſan-	1c\	Lau-	Im-	Fun-	In	ſan-	1c\	Lau-	Im-	Fun-	In	San-	1e\	lau-	im-	fun-	in	San-
1E\	-des	-bu-	-dens-	hoc	-cto	2B\	.	.	.	.	.	1e\	-des	-bu-	-dens-	hoc	-cto	1g\	-des	-bu-	-denſ-	Hoc	-cto
.	.	.	.	.	.	2B\	-des	-bu-	-dens-	hoc	-cto	.	.	.	.	.	.	.	.	.	.	.	.
!	!	!	!	!	!	!	!	!	!	!	!	!	!	!	!	!	!	!LO:N:acc=-	!	!	!	!	!
!	!	!	!	!	!	!	!	!	!	!	!	!	!	!	!	!	!	!LO:TX:t=P:problem:♭ above	!	!	!	!	!
2F\	Ca-	-ta	-q(ue)	Tri-	ſi-	2A\	Ca-	-ta	-q(ue)	Tri-	ſi-	1d\	Ca-	-ta	-q(ue)	Tri-	ſi-	1fn\	ca-	-ta	-q(ue)	tri-	Si-
2G\	.	.	.	.	.	2B\	.	.	.	.	.	.	.	.	.	.	.	.	.	.	.	.	.
=10	=10	=10	=10	=10	=10	=10	=10	=10	=10	=10	=10	=10	=10	=10	=10	=10	=10	=10	=10	=10	=10	=10	=10
1.A\	-nen-	fel-	pro	-um-	-mul	1.c\	-nen-	fel-	pro	-um-	-mul	(2c\	-nen-	fel-	pro	-um-	-mul	2e\	-nen-	fel-	pro	-um-	-mul
.	.	.	.	.	.	.	.	.	.	.	.	2B\	.	.	.	.	.	2d\	.	.	.	.	.
.	.	.	.	.	.	.	.	.	.	.	.	2c\	.	.	.	.	.	2e\	.	.	.	.	.
4G\	.	.	.	.	.	4B\	.	.	.	.	.	2d\)	.	.	.	.	.	2f\	.	.	.	.	.
4F\	.	.	.	.	.	4A\	.	.	.	.	.	.	.	.	.	.	.	.	.	.	.	.	.
1E\	.	.	.	.	.	1G/	.	.	.	.	.	1e\	.	.	.	.	.	1g\	.	.	.	.	.
=11	=11	=11	=11	=11	=11	=11	=11	=11	=11	=11	=11	=11	=11	=11	=11	=11	=11	=11	=11	=11	=11	=11	=11
1F\	-tes	-le	te	-pho	Pa-	1A\	-tes	-le	te	-pho	Pa-	1d\	-tes	-le	te	-pho	Pa-	1fn\	-tes	-le	te	-pho	Pa-
1.A\	Mar-	de-	ſan-	Mar-	-ra-	1.A\	Mar-	de-	ſan-	Mar-	-ra-	1.d\	Mar-	de-	ſan-	Mar-	-ra-	1.e\	Mar-	de-	San-	Mar-	-ra-
!LO:SIC:l:v:s=cli:verse5	!	!	!	!	!	!LO:SIC:l:v:s=cli:verse5	!	!	!	!	!	!LO:SIC:l:v:s=cli:verse5	!	!	!	!	!	!	!	!	!	!	!
2A\	-ty-	-pu-	-gui-	-ty-	-cle-	2A/	-ty-	-pu-	-gui-	-ty-	-cle-	2c#X\	-ty-	-pu-	-gui-	-ty-	-cle-	2e\	-ty-	-pu-	-gui-	-ty-	-cli-
=12	=12	=12	=12	=12	=12	=12	=12	=12	=12	=12	=12	=12	=12	=12	=12	=12	=12	=12	=12	=12	=12	=12	=12
0D\	-ris	-tans	-nem	-ris	-to	0A\,<	-ris	-tans	-nem	-ris	-to	0d\,<	-ris	-tans	-nem	-ris	-to	0d\	-ris	-tans	-ne(m),	-ris	-to
1D\	ab-	per-	ae-	di-	in	1A\	ab-	per-	ae-	di-	in	1d\	ab-	per-	ae-	di-	in	1fn\	.	per-	ae-	di-	in
=13	=13	=13	=13	=13	=13	=13	=13	=13	=13	=13	=13	=13	=13	=13	=13	=13	=13	=13	=13	=13	=13	=13	=13
1.D\	-ſol-	-ue-	-ter-	-mit-	ſem-	1.A\	-ſol-	-ue-	-ter-	-mit-	ſem-	1.d\	-ſol-	-ue-	-ter-	-mit-	ſem-	1.f\	ab-	-ve-	-ter-	-mit-	Sem-
2D\	.	.	.	.	.	2A/	.	.	.	.	.	2e\	.	.	.	.	.	2g\	.	.	.	.	.
2E\	.	.	.	.	.	2G/	.	.	.	.	.	2d\	.	.	.	.	.	2f\	.	.	.	.	.
2F\	.	.	.	.	-pi-	2A/	.	.	.	.	-pi-	2c\	.	.	.	.	-pi-	2e\	.	.	.	.	-pi-
=14	=14	=14	=14	=14	=14	=14	=14	=14	=14	=14	=14	=14	=14	=14	=14	=14	=14	=14	=14	=14	=14	=14	=14
2G\	.	.	.	.	-ter-	2B\	.	.	.	.	-ter-	1B\	.	.	.	.	-ter-	1d\	-sol-	.	.	.	-ter-
2A\	.	.	.	.	.	2c\	.	.	.	.	.	.	.	.	.	.	.	.	.	.	.	.	.
2G\	.	.	.	.	.	2B\	.	.	.	.	.	1B\	-ue	-nit	-na	-te	-na	1d\	-ve	-nit	-na	-te	-na
2F\	.	.	.	.	.	2A\	.	.	.	.	.	.	.	.	.	.	.	.	.	.	.	.	.
*	*	*	*	*	*	*	*	*	*	*	*	*	*ij	*ij	*ij	*ij	*ij	*	*ij	*ij	*ij	*ij	*ij
2E\	.	.	.	.	.	1G/	.	.	.	.	.	1c\	ab-	per-	ae-	di-	in	1e\	ab-	per-	ae-	di-	in
2D/	.	.	.	.	.	.	.	.	.	.	.	.	.	.	.	.	.	.	.	.	.	.	.
=15	=15	=15	=15	=15	=15	=15	=15	=15	=15	=15	=15	=15	=15	=15	=15	=15	=15	=15	=15	=15	=15	=15	=15
1C/	.	.	.	.	.	1.G/	-ue	-nit	-na	te	-na	1.c\	-ſol-	-ue-	-ter-	-mit-	ſem-	1.e\	-sol-	-ve-	-ter-	-mit-	Sem-
2C,/	-ue	-nit	-na	-te	-na	.	.	.	.	.	.	.	.	.	.	.	.	.	.	.	.	.	.
*	*ij	*ij	*ij	*ij	*ij	*	*	*ij	*ij	*ij	*ij	*	*	*	*	*	*	*	*	*	*	*	*
2C/	ab-	per-	ae-	di-	in	2G/	ab-	per-	ae-	di-	in	2d\	.	.	.	.	.	2f\	.	.	.	.	.
2D/	-ſol-	-ue-	-ter-	-mit-	ſem-	2F/	-ſol-	-ue-	-ter-	-mit-	ſem-	2c\	.	.	.	.	.	2e\	.	.	.	.	.
2E/	-ue	-nit	-na	-te	-pi-	2G/	-ue	-nit	-na	-te	-pi-	2B\	.	.	.	.	.	2d\	-ve	.	.	.	.
*	*Xij	*Xij	*Xij	*Xij	*	*	*	*Xij	*Xij	*Xij	*	*	*	*	*	*	*	*	*Xij	*	*	*	*
=16	=16	=16	=16	=16	=16	=16	=16	=16	=16	=16	=16	=16	=16	=16	=16	=16	=16	=16	=16	=16	=16	=16	=16
1.F\	ne-	ad	do-	no-	-ter-	1.A\	ne-	ad	do-	no-	-ter-	1.A\	.	.	.	.	.	1.c\	ne-	.	.	.	.
2G\	.	.	.	.	.	2B\	.	.	.	.	.	2G/	-ue	-nit	-na	-te	pi-	2B/	.	-nit	-na	-te	-pi-
*	*	*	*	*	*	*	*	*	*	*	*	*	*Xij	*Xij	*Xij	*Xij	*	*	*	*Xij	*Xij	*Xij	*
1A\	.	.	.	.	.	1c\	.	.	.	.	.	1c\	ne-	ad	do-	no-	-ter-	1A/	-xu	ad	do-	no-	-ter-
=17	=17	=17	=17	=17	=17	=17	=17	=17	=17	=17	=17	=17	=17	=17	=17	=17	=17	=17	=17	=17	=17	=17	=17
1D\	-xu	cae-	-na	-xam	-na	(2d\	-xu	cae-	-na	-xam	-na	1A\	-xu	cae-	-na	-xam	-na	1f\	Cri-	Cae-	-na	-xa(m)	-na
*	*	*	*	*	*Xij	*	*	*	*	*	*Xij	*	*	*	*	*	*Xij	*	*	*	*	*	*Xij
.	.	.	.	.	.	2c\)	.	.	.	.	.	.	.	.	.	.	.	.	.	.	.	.	.
1.E\	cri-	-leſ-	poſ-	ſer-	ſae-	1.B\	Cri-	-leſ-	poſ-	ſer-	ſae-	1.A\	Cri-	-leſ-	poſ-	ſer-	ſae-	1.e\	.	-leſ-	poſ-	Ser-	Sae-
2E\	-mi-	-ti-	-si-	-uu-	-cu-	2B\	-mi-	-ti-	-si-	-uu-	-cu-	2G#X/	-mi-	-ti-	-si-	-uu-	-cu-	2e\	-mi-	-ti-	-si-	-vu-	-cu-
=18-	=18-	=18-	=18-	=18-	=18-	=18-	=18-	=18-	=18-	=18-	=18-	=18	=18	=18	=18	=18	=18	=18-	=18-	=18-	=18-	=18-	=18-
!	!	!	!	!	!	!	!	!	!	!	!	!	!	!	!	!	!	!LO:TX:t=P:problem:druga fermata pod nutą	!	!	!	!	!
0.AA/;	-nis	-a	-det	-li[s]	-la	0.A\;<	-nis	-a	-det	-lis	-la	0.A\;<	-nis	-a	-det	-lis	-la	0.e\;;	-ni[s]	-a	-det	-lis	-la
==	==	==	==	==	==	==	==	==	==	==	==	==	==	==	==	==	==	==	==	==	==	==	==
*-	*-	*-	*-	*-	*-	*-	*-	*-	*-	*-	*-	*-	*-	*-	*-	*-	*-	*-	*-	*-	*-	*-	*-
!!!system-decoration: [(s1,s2,s3,s4)]
!!!RDF**kern: > = above
!!!RDF**kern: < = below
!!!EED: Andrzej Borzym
!!!EST: 2021-04-06
!!!AIN: 1 alto 1 bass 2 tenor
!!!ENC: Kamil Watkowski
!!!END: 2021-03-25
